X: 1
T: Rohan
R: air
M: 4/4
L: 1/8
K: Ador
| z A/A/ Ac B2 c2| d2 A6| z A/A/ Ac B2 e2 | f2 a6| 
| z E/E/ A/A/A B2 cc/c/ | d2 A6 | B2 G2 F3 G | G2 E6 |
| z A/A/ Ac B2 e2 | f2 d6 | z A/A/ Ac B2 e2 |f2 a4 - aB |
| B2 G4 G/B/c  | d4 A- A/A/d/e/ | e4 c3-/c/e/ | e6 z2 | 


